22x22/apps/ZeroNet.svg

<svg xmlns="http://www.w3.org/2000/svg" width="22" height="22" version="1.1">
 <path style="opacity:0.2;fill-rule:evenodd" d="M 4,13.245092 V 6.3786836 c 2e-7,-0.980158 0.2536167,-1.0058402 1.0248311,-1.4601703 L 10.352902,1.7796925 c 0.687586,-0.3629021 0.670311,-0.3698073 1.241833,-0.035638 L 17.999834,5.4891277 16.308083,9.1625755 11.002813,5.8433974 7.9999175,7.99643 v 2.913558 z"/>
 <path style="opacity:0.2;fill-rule:evenodd" d="m 17.994528,9.6441335 v 6.9305535 c 0.0053,1.014969 -0.20183,1.011138 -0.979362,1.469271 l -5.49153,3.23569 c -0.543857,0.305483 -0.576456,0.282846 -1.065499,-0.003 l -6.4528304,-3.772652 2.1166665,-3.216144 4.8736029,2.858272 3.004341,-2.155002 v -2.961134 z"/>
 <path style="fill:#b66af5;fill-rule:evenodd" d="M 4,12.745104 V 5.8786971 c 2e-7,-0.980158 0.2536167,-1.0058402 1.0248311,-1.4601703 L 10.352902,1.279706 c 0.687586,-0.36290209 0.670311,-0.36980729 1.241833,-0.035638 l 6.405099,3.7450732 -1.691751,3.673447 -5.30527,-3.3191773 -3.0028955,2.1530326 V 10.41 Z"/>
 <path style="fill:#8a49ff;fill-rule:evenodd" d="m 17.994528,9.1441455 v 6.9305535 c 0.0053,1.014969 -0.20183,1.011138 -0.979362,1.469271 l -5.49153,3.23569 c -0.543857,0.305483 -0.576456,0.282846 -1.065499,-0.003 l -6.4528304,-3.772652 2.1166665,-3.216144 4.8736029,2.858272 3.004341,-2.155002 V 11.53 Z"/>
 <path style="opacity:0.2;fill:#f4f4f7;fill-rule:evenodd" d="m 11.017495,1.0002416 c -0.153068,0.00532 -0.321237,0.097843 -0.66503,0.2792936 L 5.0244021,4.4181703 C 4.2531877,4.8725004 4.0000002,4.8989326 4.0000002,5.8790901 v 0.4990176 c 0,-0.980158 0.2531875,-1.0056132 1.0244019,-1.4599433 L 10.352465,1.7795293 c 0.687586,-0.362902 0.67065,-0.3693255 1.242172,-0.035156 L 17.796712,5.3703071 17.999834,4.9894526 11.594638,1.2443794 C 11.308877,1.0772946 11.170565,0.99492381 11.017495,1.0002416 Z"/>
 <path style="opacity:0.2;fill-rule:evenodd" d="M 4.0000002,17.500041 17.999834,9.1556165 V 5.5001809 L 4.0000002,13.741586 Z"/>
 <path style="fill:#a551ff;fill-rule:evenodd" d="M 4.0000002,17.000053 17.999834,8.6556293 V 5.0001944 L 4.0000002,13.241598 Z"/>
</svg>

<svg xmlns="http://www.w3.org/2000/svg" width="22" height="22"><path style="opacity:.2;fill-rule:evenodd" d="M4 13.245V6.38c0-.98.254-1.006 1.025-1.46l5.328-3.14c.687-.362.67-.37 1.242-.035L18 5.49l-1.692 3.674-5.305-3.32L8 7.996v2.914zM17.995 9.644v6.93c.005 1.016-.202 1.012-.98 1.47l-5.491 3.236c-.544.305-.577.282-1.066-.003l-6.453-3.773 2.117-3.216 4.874 2.858L14 14.991V12.03z"/><path style="fill:#b66af5;fill-rule:evenodd" d="M4 12.745V5.88c0-.98.254-1.006 1.025-1.46l5.328-3.14c.687-.362.67-.37 1.242-.035L18 4.99l-1.692 3.674-5.305-3.32L8 7.496v2.914z"/><path style="fill:#8a49ff;fill-rule:evenodd" d="M17.995 9.144v6.93c.005 1.016-.202 1.012-.98 1.47l-5.491 3.236c-.544.305-.577.283-1.066-.003l-6.453-3.773 2.117-3.216 4.874 2.858L14 14.491V11.53z"/><path style="opacity:.2;fill:#f4f4f7;fill-rule:evenodd" d="M11.017 1c-.153.006-.32.098-.665.28L5.024 4.418C4.254 4.873 4 4.898 4 5.88v.5c0-.981.253-1.007 1.024-1.46l5.328-3.14c.688-.362.671-.369 1.243-.035l6.202 3.626.203-.38-6.405-3.746c-.286-.167-.424-.25-.578-.244z"/><path style="opacity:.2;fill-rule:evenodd" d="m4 17.5 14-8.344V5.5L4 13.742z"/><path style="fill:#a551ff;fill-rule:evenodd" d="m4 17 14-8.344V5L4 13.242z"/></svg>
